src/images/logo.svg

<svg width="3437" height="1172" fill="none" xmlns="http://www.w3.org/2000/svg"><path d="M820.469 404.477 647.129 966H463.047l261.23-710.938h116.7l-20.508 149.415ZM964.023 966 790.195 404.477l-22.461-149.415h118.164L1148.59 966H964.023Zm-6.835-265.137v132.325H592.441V700.863h364.747Z" fill="#fff"/><path d="M1271.21 550.473V966h-164.55V437.68h154.3l10.25 112.793Zm-19.53 133.3-38.57.977c0-40.365 4.88-76.335 14.64-107.91 9.77-31.901 23.6-58.919 41.51-81.055 17.9-22.135 39.22-38.9 63.96-50.293 25.07-11.719 52.9-17.578 83.5-17.578 24.41 0 46.71 3.581 66.89 10.742 20.51 7.162 38.09 18.718 52.74 34.668 14.97 15.951 26.36 37.11 34.18 63.477 8.14 26.041 12.2 58.268 12.2 96.679V966h-165.52V632.992c0-21.159-2.93-37.272-8.79-48.34-5.86-11.393-14.32-19.205-25.39-23.437-11.07-4.232-24.58-6.348-40.53-6.348-16.93 0-31.25 3.255-42.97 9.766-11.72 6.51-21.16 15.625-28.32 27.344-6.83 11.393-11.88 24.902-15.14 40.527-2.93 15.625-4.39 32.715-4.39 51.269ZM1917.75 844.906V216h165.53v750h-148.44l-17.09-121.094Zm-324.21-136.718v-10.254c0-40.039 4.39-76.498 13.18-109.375 8.79-33.204 21.81-61.687 39.06-85.45 17.25-24.088 38.74-42.643 64.45-55.664 25.72-13.021 55.34-19.531 88.87-19.531 29.95 0 56.15 6.999 78.61 20.996 22.47 13.672 41.67 32.878 57.62 57.617 15.95 24.74 28.97 53.711 39.06 86.914 10.1 32.878 17.75 68.36 22.95 106.446v12.207c-5.2 35.807-12.85 69.661-22.95 101.562-10.09 31.576-23.11 59.571-39.06 83.985-15.95 24.414-35.32 43.619-58.1 57.617-22.46 13.672-48.83 20.508-79.11 20.508-33.52 0-63.15-6.674-88.86-20.02-25.39-13.346-46.71-32.064-63.97-56.152-16.92-24.089-29.78-52.409-38.57-84.961s-13.18-68.034-13.18-106.445Zm164.55-10.254v10.254c0 19.856 1.3 38.248 3.9 55.175 2.61 16.927 7 31.901 13.19 44.922 6.51 12.695 14.97 22.624 25.39 29.785 10.74 7.162 23.92 10.742 39.55 10.742 21.16 0 38.57-5.045 52.24-15.136 14-10.091 24.25-24.414 30.76-42.969 6.84-18.555 9.77-40.365 8.79-65.43v-38.574c.66-21.484-.81-40.364-4.39-56.641-3.58-16.601-9.28-30.436-17.09-41.503-7.49-11.068-17.09-19.369-28.81-24.903-11.39-5.859-24.9-8.789-40.53-8.789-15.3 0-28.32 3.581-39.06 10.742-10.42 7.162-18.88 17.253-25.39 30.274-6.51 12.695-11.23 27.832-14.16 45.41-2.93 17.253-4.39 36.133-4.39 56.641ZM2372.4 975.766c-42.97 0-81.38-6.674-115.23-20.02-33.86-13.672-62.5-32.389-85.94-56.152-23.11-23.763-40.85-51.107-53.22-82.032-12.05-30.924-18.07-63.639-18.07-98.144v-18.555c0-38.737 5.37-74.544 16.11-107.422 10.75-33.203 26.7-62.174 47.86-86.914 21.16-24.739 47.69-43.945 79.59-57.617 31.9-13.997 69.01-20.996 111.32-20.996 37.44 0 70.97 6.022 100.59 18.066 29.62 12.045 54.69 29.297 75.2 51.758 20.83 22.461 36.62 49.642 47.36 81.543 11.07 31.901 16.6 67.709 16.6 107.422v66.895h-431.64V650.57h271v-12.695c.32-17.578-2.77-32.552-9.28-44.922-6.19-12.37-15.3-21.81-27.35-28.32-12.04-6.511-26.69-9.766-43.94-9.766-17.9 0-32.72 3.906-44.43 11.719-11.4 7.812-20.35 18.555-26.86 32.226-6.18 13.347-10.58 28.809-13.18 46.387-2.61 17.578-3.91 36.133-3.91 55.664v18.555c0 19.531 2.6 37.272 7.81 53.223 5.54 15.95 13.35 29.622 23.44 41.015 10.42 11.068 22.79 19.694 37.11 25.879 14.65 6.185 31.25 9.277 49.8 9.277 22.47 0 44.6-4.231 66.41-12.695 21.81-8.463 40.53-22.461 56.15-41.992l74.71 88.867c-10.74 15.3-26.04 30.111-45.9 44.434-19.53 14.323-42.97 26.041-70.31 35.156-27.34 8.789-57.94 13.184-91.8 13.184ZM2767.48 568.539V966h-164.55V437.68h153.81l10.74 130.859Zm156.25-134.766-2.93 152.832c-6.51-.651-15.3-1.464-26.37-2.441-11.06-.976-20.34-1.465-27.83-1.465-19.2 0-35.81 2.279-49.8 6.836-13.68 4.232-25.07 10.742-34.18 19.531-8.79 8.464-15.3 19.206-19.53 32.227-3.91 13.021-5.7 28.158-5.38 45.41l-29.78-19.531c0-35.482 3.42-67.708 10.25-96.68 7.17-29.297 17.26-54.525 30.28-75.683 13.02-21.485 28.81-37.924 47.36-49.317 18.56-11.719 39.39-17.578 62.5-17.578 8.14 0 16.11.488 23.93 1.465 8.13.976 15.3 2.441 21.48 4.394Z" fill="#fff"/><path d="M3197.23 817.562c0-9.114-3.1-16.927-9.28-23.437-5.86-6.836-16.28-13.021-31.25-18.555-14.97-5.859-35.97-11.718-62.99-17.578-25.72-5.534-49.97-12.858-72.75-21.972-22.46-9.115-42.16-20.183-59.08-33.204-16.93-13.02-30.28-28.483-40.04-46.386-9.44-17.904-14.16-38.412-14.16-61.524 0-22.461 4.72-43.62 14.16-63.476 9.76-20.183 23.92-37.923 42.48-53.223 18.88-15.625 41.83-27.832 68.84-36.621 27.02-9.115 57.78-13.672 92.29-13.672 47.53 0 88.54 7.324 123.05 21.973 34.5 14.323 61.03 34.505 79.59 60.547 18.88 25.716 28.32 55.501 28.32 89.355h-164.55c0-13.346-2.28-24.74-6.84-34.18-4.23-9.44-11.23-16.601-21-21.484-9.76-5.208-22.78-7.813-39.06-7.813-11.39 0-21.81 2.116-31.25 6.348-9.11 4.232-16.44 10.091-21.97 17.578-5.54 7.487-8.3 16.276-8.3 26.367 0 7.162 1.63 13.672 4.88 19.532 3.58 5.534 8.95 10.742 16.11 15.625 7.17 4.557 16.28 8.789 27.35 12.695 11.07 3.581 24.41 6.836 40.04 9.766 35.48 6.51 68.68 15.787 99.61 27.832 30.92 12.044 55.99 29.134 75.19 51.269 19.53 22.136 29.3 51.921 29.3 89.356 0 23.437-5.37 45.084-16.12 64.941-10.74 19.531-26.2 36.784-46.38 51.758-20.18 14.648-44.44 26.042-72.76 34.18-28.32 8.138-60.22 12.207-95.7 12.207-50.45 0-93.1-8.952-127.93-26.856-34.83-18.229-61.2-41.015-79.1-68.359-17.58-27.669-26.37-55.664-26.37-83.985h153.32c.65 16.276 4.56 29.623 11.72 40.039 7.49 10.417 17.42 18.067 29.79 22.95 12.37 4.883 26.69 7.324 42.97 7.324 14.97 0 27.34-2.116 37.1-6.348 10.1-4.232 17.75-9.928 22.95-17.09 5.21-7.487 7.82-16.113 7.82-25.879Z" fill="#fff"/><path d="M280.586 829.164v-160.41h113.652c21.306 0 37.758 3.667 49.754 10.565l.041.024.042.022c12.077 6.643 20.744 16.073 26.151 28.391l.021.046.021.046c5.816 12.55 8.814 27.589 8.814 45.261 0 14.222-3.084 27.086-9.19 38.687l-.012.023-.011.022c-5.626 10.955-15.034 20.039-28.615 27.141-13.029 6.66-30.862 10.182-53.852 10.182H280.586ZM578.78 612.011c-6.938-3.835-14.448-7.135-22.523-9.908a146.485 146.485 0 0 0 5.415-2.807l.008-.005.009-.005c29.716-16.36 51.2-37.733 64.095-64.202 12.711-26.09 19.06-54.022 19.06-83.732 0-33.837-6.47-63.465-19.601-88.722-13.104-25.53-32.248-46.662-57.32-63.379-24.694-16.682-54.583-28.933-89.55-36.853-34.954-8.241-74.568-12.336-118.803-12.336H99.199V971h288.203c59.003 0 108.822-7.862 149.292-23.785 40.534-15.948 71.224-39.998 91.732-72.264 20.817-32.237 31.066-72.135 31.066-119.4 0-28.107-6.196-55.05-18.56-80.779-12.559-26.138-33.387-47.037-62.152-62.761Zm-220.186-65.562h-78.008V392.387h78.984c25.065 0 45.091 2.9 60.288 8.482l.057.021.058.02c15.382 5.23 26.209 13.53 32.976 24.71 6.863 11.339 10.508 26.625 10.508 46.239 0 16.875-3.59 30.527-10.444 41.254l-.027.042-.026.042c-6.455 10.563-17.006 18.898-32.167 24.785-15.171 5.565-35.822 8.467-62.199 8.467Z" fill="#212121" stroke="#fff" stroke-width="10"/></svg>

<svg width="3437" height="1210" viewBox="0 0 3437 1210" fill="none" xmlns="http://www.w3.org/2000/svg">
<path d="M820.469 404.477L647.129 966H463.047L724.277 255.062H840.977L820.469 404.477ZM964.023 966L790.195 404.477L767.734 255.062H885.898L1148.59 966H964.023ZM957.188 700.863V833.188H592.441V700.863H957.188ZM1271.21 550.473V966H1106.66V437.68H1260.96L1271.21 550.473ZM1251.68 683.773L1213.11 684.75C1213.11 644.385 1217.99 608.415 1227.75 576.84C1237.52 544.939 1251.35 517.921 1269.26 495.785C1287.16 473.65 1308.48 456.885 1333.22 445.492C1358.29 433.773 1386.12 427.914 1416.72 427.914C1441.13 427.914 1463.43 431.495 1483.61 438.656C1504.12 445.818 1521.7 457.374 1536.35 473.324C1551.32 489.275 1562.71 510.434 1570.53 536.801C1578.67 562.842 1582.73 595.069 1582.73 633.48V966H1417.21V632.992C1417.21 611.833 1414.28 595.72 1408.42 584.652C1402.56 573.259 1394.1 565.447 1383.03 561.215C1371.96 556.983 1358.45 554.867 1342.5 554.867C1325.57 554.867 1311.25 558.122 1299.53 564.633C1287.81 571.143 1278.37 580.258 1271.21 591.977C1264.38 603.37 1259.33 616.879 1256.07 632.504C1253.14 648.129 1251.68 665.219 1251.68 683.773ZM1917.75 844.906V216H2083.28V966H1934.84L1917.75 844.906ZM1593.54 708.188V697.934C1593.54 657.895 1597.93 621.436 1606.72 588.559C1615.51 555.355 1628.53 526.872 1645.78 503.109C1663.03 479.021 1684.52 460.466 1710.23 447.445C1735.95 434.424 1765.57 427.914 1799.1 427.914C1829.05 427.914 1855.25 434.913 1877.71 448.91C1900.18 462.582 1919.38 481.788 1935.33 506.527C1951.28 531.267 1964.3 560.238 1974.39 593.441C1984.49 626.319 1992.14 661.801 1997.34 699.887V712.094C1992.14 747.901 1984.49 781.755 1974.39 813.656C1964.3 845.232 1951.28 873.227 1935.33 897.641C1919.38 922.055 1900.01 941.26 1877.23 955.258C1854.77 968.93 1828.4 975.766 1798.12 975.766C1764.6 975.766 1734.97 969.092 1709.26 955.746C1683.87 942.4 1662.55 923.682 1645.29 899.594C1628.37 875.505 1615.51 847.185 1606.72 814.633C1597.93 782.081 1593.54 746.599 1593.54 708.188ZM1758.09 697.934V708.188C1758.09 728.044 1759.39 746.436 1761.99 763.363C1764.6 780.29 1768.99 795.264 1775.18 808.285C1781.69 820.98 1790.15 830.909 1800.57 838.07C1811.31 845.232 1824.49 848.812 1840.12 848.812C1861.28 848.812 1878.69 843.767 1892.36 833.676C1906.36 823.585 1916.61 809.262 1923.12 790.707C1929.96 772.152 1932.89 750.342 1931.91 725.277V686.703C1932.57 665.219 1931.1 646.339 1927.52 630.062C1923.94 613.461 1918.24 599.626 1910.43 588.559C1902.94 577.491 1893.34 569.19 1881.62 563.656C1870.23 557.797 1856.72 554.867 1841.09 554.867C1825.79 554.867 1812.77 558.448 1802.03 565.609C1791.61 572.771 1783.15 582.862 1776.64 595.883C1770.13 608.578 1765.41 623.715 1762.48 641.293C1759.55 658.546 1758.09 677.426 1758.09 697.934ZM2372.4 975.766C2329.43 975.766 2291.02 969.092 2257.17 955.746C2223.31 942.074 2194.67 923.357 2171.23 899.594C2148.12 875.831 2130.38 848.487 2118.01 817.562C2105.96 786.638 2099.94 753.923 2099.94 719.418V700.863C2099.94 662.126 2105.31 626.319 2116.05 593.441C2126.8 560.238 2142.75 531.267 2163.91 506.527C2185.07 481.788 2211.6 462.582 2243.5 448.91C2275.4 434.913 2312.51 427.914 2354.82 427.914C2392.26 427.914 2425.79 433.936 2455.41 445.98C2485.03 458.025 2510.1 475.277 2530.61 497.738C2551.44 520.199 2567.23 547.38 2577.97 579.281C2589.04 611.182 2594.57 646.99 2594.57 686.703V753.598H2162.93V650.57H2433.93V637.875C2434.25 620.297 2431.16 605.323 2424.65 592.953C2418.46 580.583 2409.35 571.143 2397.3 564.633C2385.26 558.122 2370.61 554.867 2353.36 554.867C2335.46 554.867 2320.64 558.773 2308.93 566.586C2297.53 574.398 2288.58 585.141 2282.07 598.812C2275.89 612.159 2271.49 627.621 2268.89 645.199C2266.28 662.777 2264.98 681.332 2264.98 700.863V719.418C2264.98 738.949 2267.58 756.69 2272.79 772.641C2278.33 788.591 2286.14 802.263 2296.23 813.656C2306.65 824.724 2319.02 833.35 2333.34 839.535C2347.99 845.72 2364.59 848.812 2383.14 848.812C2405.61 848.812 2427.74 844.581 2449.55 836.117C2471.36 827.654 2490.08 813.656 2505.7 794.125L2580.41 882.992C2569.67 898.292 2554.37 913.103 2534.51 927.426C2514.98 941.749 2491.54 953.467 2464.2 962.582C2436.86 971.371 2406.26 975.766 2372.4 975.766ZM2767.48 568.539V966H2602.93V437.68H2756.74L2767.48 568.539ZM2923.73 433.773L2920.8 586.605C2914.29 585.954 2905.5 585.141 2894.43 584.164C2883.37 583.188 2874.09 582.699 2866.6 582.699C2847.4 582.699 2830.79 584.978 2816.8 589.535C2803.12 593.767 2791.73 600.277 2782.62 609.066C2773.83 617.53 2767.32 628.272 2763.09 641.293C2759.18 654.314 2757.39 669.451 2757.71 686.703L2727.93 667.172C2727.93 631.69 2731.35 599.464 2738.18 570.492C2745.35 541.195 2755.44 515.967 2768.46 494.809C2781.48 473.324 2797.27 456.885 2815.82 445.492C2834.38 433.773 2855.21 427.914 2878.32 427.914C2886.46 427.914 2894.43 428.402 2902.25 429.379C2910.38 430.355 2917.55 431.82 2923.73 433.773ZM3197.23 817.562C3197.23 808.448 3194.13 800.635 3187.95 794.125C3182.09 787.289 3171.67 781.104 3156.7 775.57C3141.73 769.711 3120.73 763.852 3093.71 757.992C3067.99 752.458 3043.74 745.134 3020.96 736.02C2998.5 726.905 2978.8 715.837 2961.88 702.816C2944.95 689.796 2931.6 674.333 2921.84 656.43C2912.4 638.526 2907.68 618.018 2907.68 594.906C2907.68 572.445 2912.4 551.286 2921.84 531.43C2931.6 511.247 2945.76 493.507 2964.32 478.207C2983.2 462.582 3006.15 450.375 3033.16 441.586C3060.18 432.471 3090.94 427.914 3125.45 427.914C3172.98 427.914 3213.99 435.238 3248.5 449.887C3283 464.21 3309.53 484.392 3328.09 510.434C3346.97 536.15 3356.41 565.935 3356.41 599.789H3191.86C3191.86 586.443 3189.58 575.049 3185.02 565.609C3180.79 556.169 3173.79 549.008 3164.02 544.125C3154.26 538.917 3141.24 536.312 3124.96 536.312C3113.57 536.312 3103.15 538.428 3093.71 542.66C3084.6 546.892 3077.27 552.751 3071.74 560.238C3066.2 567.725 3063.44 576.514 3063.44 586.605C3063.44 593.767 3065.07 600.277 3068.32 606.137C3071.9 611.671 3077.27 616.879 3084.43 621.762C3091.6 626.319 3100.71 630.551 3111.78 634.457C3122.85 638.038 3136.19 641.293 3151.82 644.223C3187.3 650.733 3220.5 660.01 3251.43 672.055C3282.35 684.099 3307.42 701.189 3326.62 723.324C3346.15 745.46 3355.92 775.245 3355.92 812.68C3355.92 836.117 3350.55 857.764 3339.8 877.621C3329.06 897.152 3313.6 914.405 3293.42 929.379C3273.24 944.027 3248.98 955.421 3220.66 963.559C3192.34 971.697 3160.44 975.766 3124.96 975.766C3074.51 975.766 3031.86 966.814 2997.03 948.91C2962.2 930.681 2935.83 907.895 2917.93 880.551C2900.35 852.882 2891.56 824.887 2891.56 796.566H3044.88C3045.53 812.842 3049.44 826.189 3056.6 836.605C3064.09 847.022 3074.02 854.672 3086.39 859.555C3098.76 864.438 3113.08 866.879 3129.36 866.879C3144.33 866.879 3156.7 864.763 3166.46 860.531C3176.56 856.299 3184.21 850.603 3189.41 843.441C3194.62 835.954 3197.23 827.328 3197.23 817.562Z" fill="white"/>
<path d="M394.238 663.754H211.133L210.156 551.449H358.594C385.286 551.449 406.608 548.52 422.559 542.66C438.509 536.475 450.065 527.523 457.227 515.805C464.714 504.086 468.457 489.438 468.457 471.859C468.457 451.677 464.714 435.401 457.227 423.031C449.74 410.661 437.858 401.71 421.582 396.176C405.632 390.316 384.961 387.387 359.57 387.387H275.586V966H104.199V255.062H359.57C403.516 255.062 442.741 259.132 477.246 267.27C511.751 275.082 541.048 287.126 565.137 303.402C589.551 319.678 608.105 340.186 620.801 364.926C633.496 389.34 639.844 418.148 639.844 451.352C639.844 480.323 633.659 507.504 621.289 532.895C608.919 558.285 588.249 578.956 559.277 594.906C530.632 610.531 491.406 618.669 441.602 619.32L394.238 663.754ZM387.402 966H169.629L228.223 834.164H387.402C410.84 834.164 429.557 830.583 443.555 823.422C457.878 815.935 468.132 806.169 474.316 794.125C480.827 781.755 484.082 768.083 484.082 753.109C484.082 734.88 480.99 719.092 474.805 705.746C468.945 692.4 459.505 682.146 446.484 674.984C433.464 667.497 416.048 663.754 394.238 663.754H250.195L251.172 551.449H423.535L463.574 596.371C511.1 594.418 548.698 601.091 576.367 616.391C604.362 631.69 624.382 651.872 636.426 676.938C648.47 702.003 654.492 728.207 654.492 755.551C654.492 802.1 644.401 841 624.219 872.25C604.362 903.5 574.577 926.938 534.863 942.562C495.15 958.188 445.996 966 387.402 966Z" fill="#263238"/>
</svg>
